X:1
T:Shove That Pig's Foot a Little Further in the Fire
L:1/8
M:4/4
I:linebreak $
K:G
V:1 treble
V:1
 GA |"G" BdBA G2 E2 |"C" GAGE "G"D4 | DE G2 B3 c |"D" B2 A4 GA |$
"G" BdBA G2 E2 |"C" GAGE "G"D4 | DE G2 "D"B3 G |"G"A2 G4 ::$
  GA |"G" B d3 d2 d2 |"C" ed "G"B2 d4 |"C" g4 g3 d |"D"e2 d4 d2 |$
"G" B d3 d2 d2 |"C" ed "G"B2 d4 | B2 B2 "D"B3 d |"G"A2 G6 :|
